X:1
T:Spanish Eyes
T:Spanish Eyes
T:(adatped for flute quartet) 
T:B. Kaempfert
T:C. Singleton & E. Synder
T:1965
T:1965
T:1965
C:B. Kaempfert
Z:C. Singleton & E. Synder
Z:1965
%%score 1 2 3 4
L:1/8
Q:1/2=54
M:2/2
K:G
V:1 treble nm="Flute" snm="Fl."
V:2 treble nm="Flute" snm="Fl."
V:3 treble nm="Flute" snm="Fl."
V:4 treble nm="Flute" snm="Fl."
V:1
!mf! (g8 | g4) b4 | (d'8 | d'8) |: (B8 | B4) B2 c2 | (d8 | d6) z2 | B B2 c d2 e2 | ^f2 g2 a3 b | %10
 (c'8 | c'6) z2 | (A8 | A4) A2 B2 | (c8 | c6) z2 | (3A2 A2 B2 c2 d2 | e2 ^f2 g3 a | (b8 | b6) z2 | %20
 (B8 | B4) B2 c2 | (d8 | d6) z2 | B B2 c d2 e2 | =f2 g2 a2 g2 | (e8 | e6) z2 | (g8 | g4) ^f2 _e2 | %30
 (d8 | d6) d2 | c c2 B A2 G2 | F2 G2 A3 F | (g8 | g6) z2 :| _ee (_e6 | (_e8) | _e2) =f_e f2 fe | %39
 (d8 | _e4 =f2 e2 | (d8 | g8)) |] %43
V:2
!mf!!mf! (d8 | d4) g4 | (b8 | b8) |: (B8 | B4) B2 c2 | (d8 | d6) z2 | B B2 c B4 | d4 d4 | (f8 | %11
 f8) | (A8 | A4) A2 B2 | (c8 | c8) | (3z2 A2 B2 A4 | e2 ^f2 g3 f | (g8 | g8) | (B8 | B4) B2 c2 | %22
 (d8 | d6) z2 | B B2 c B4 | d4 =f4 | (c8 | c8) | (_e8 | e4) d2 c2 | (B8 | B6) B2 | F4 F2 E2 | %33
 D4 D4 | (d8 | d8) :| c_e (c6 | (c8) | c2) dc d2 dc | (B8 | c4 d2 c2 | B6 B2 | d8) |] %43
V:3
!mf!!mf!!mf! (B8 | B4) d4 | (g8 | g8) |: (G8 | G4) G2 A2 | (B8 | B8) | G G2 A G4 | B4 d4 | (d8 | %11
 d8) | (F8 | F4) F2 G2 | (A8 | A8) | d4 d4 | c4 c4 | (d8 | d8) | (G8 | G4) G2 A2 | (B8 | B8) | %24
 G G2 A G4 | B4 =f4 | (G8 | G8) | (c8 | c4) G4 | (G8 | G6) G2 | D4 C4 | C4 C4 | (B8 | B8) :| %36
 _A_e (A6 | (_A8) | _A2) dc d2 dc | (G8 | _A4 B2 A2 | G6 G2 | B8) |] %43
V:4
!mf! G d2 d D2 d2 | G d2 d D2 d2 | G d2 d D2 d2 | G d2 d D2 d2 |: G d2 d D2 d2 | G d2 d D4 | %6
 G d2 d D2 d2 | G d2 d D2 d2 | G4 D4 | B4 B2 d2 | A d2 d D2 d2 | A d2 d D2 d2 | A d2 d D2 d2 | %13
 A d2 d D4 | A d2 d D2 d2 | A d2 d D2 d2 | A4 D4 | A4 D2 d2 | G d2 d D2 d2 | G d2 d D2 d2 | %20
 G d2 d D2 d2 | G d2 d D4 | G d2 d D2 d2 | G d2 d D2 d2 | G4 D4 | G4 d2 G2 | C G2 G C2 G2 | %27
 C G2 G C2 G2 | C G2 G C2 G2 | C G2 G C4 | G d2 d D2 d2 | G d2 d D2 d2 | A4 D4 | A4 F2 D2 | %34
 G d2 d D2 d2 | G d2 d D2 d2 :| _A _e2 e _E2 e2 | _A _e2 e _E2 e2 | _A2 z2 A4 | G d2 d D2 d2 | %40
 _A _e2 e B2 e2 | G d2 d D4 | G8 |] %43

